;FLAVOR:Marlin
;TIME:680
;Filament used: 1.78846m
;Layer height: 0.32
;MINX:100.9
;MINY:52.9
;MINZ:0.32
;MAXX:119.1
;MAXY:167.1
;MAXZ:3.08
;Generated with Cura_SteamEngine 4.5.0
M140 S75
M105
M190 S75
M104 S240
M105
M109 S240
M82 ;absolute extrusion mode
M201 X500.00 Y500.00 Z100.00 E5000.00 ;Setup machine max acceleration
M203 X500.00 Y500.00 Z10.00 E50.00 ;Setup machine max feedrate
M204 P500.00 R1000.00 T500.00 ;Setup Print/Retract/Travel acceleration
M205 X8.00 Y8.00 Z0.40 E5.00 ;Setup Jerk
M220 S100 ;Reset Feedrate
M221 S100 ;Reset Flowrate

G28 ;Home

G92 E0 ;Reset Extruder
G1 Z2.0 F3000 ;Move Z Axis up
G1 X10.1 Y20 Z0.28 F5000.0 ;Move to start position
G1 X10.1 Y200.0 Z0.28 F1500.0 E15 ;Draw the first line
G1 X10.4 Y200.0 Z0.28 F5000.0 ;Move to side a little
G1 X10.4 Y20 Z0.28 F1500.0 E30 ;Draw the second line
G92 E0 ;Reset Extruder
G1 Z2.0 F3000 ;Move Z Axis up

G92 E0
G92 E0
G1 F1500 E-6
;LAYER_COUNT:9
;LAYER:0
M107
G1 F300 Z0.52
;MESH:good dog bone without defect_05262021.STL
G0 F6000 X119.1 Y167.1 Z0.52
;TYPE:WALL-OUTER
G1 F300 Z0.32
G1 F1500 E0
G1 F1200 X100.9 Y167.1 E1.93707
G1 X100.9 Y141.877 E4.62162
G1 X101.841 Y139.568 E4.88699
G1 X103.056 Y137.298 E5.16102
G1 X104.568 Y135.06 E5.44849
G1 X105.737 Y133.221 E5.68041
G1 X106.653 Y131.081 E5.92817
G1 X107.213 Y128.821 E6.17598
G1 X107.4 Y126.516 E6.42211
G1 X107.4 Y93.484 E9.93779
G1 X107.213 Y91.179 E10.18392
G1 X106.653 Y88.919 E10.43173
G1 X105.737 Y86.78 E10.67939
G1 X104.502 Y84.838 E10.92433
G1 X103.056 Y82.702 E11.19887
G1 X101.841 Y80.432 E11.4729
G1 X100.9 Y78.123 E11.73828
G1 X100.9 Y52.9 E14.42282
G1 X119.1 Y52.9 E16.35989
G1 X119.1 Y78.123 E19.04444
G1 X118.159 Y80.432 E19.30982
G1 X116.944 Y82.702 E19.58385
G1 X115.432 Y84.94 E19.87131
G1 X114.263 Y86.779 E20.10324
G1 X113.347 Y88.919 E20.35099
G1 X112.787 Y91.179 E20.5988
G1 X112.6 Y93.484 E20.84494
G1 X112.6 Y126.516 E24.36061
G1 X112.787 Y128.821 E24.60674
G1 X113.347 Y131.081 E24.85456
G1 X114.263 Y133.22 E25.10221
G1 X115.498 Y135.162 E25.34716
G1 X116.944 Y137.298 E25.62169
G1 X118.159 Y139.568 E25.89573
G1 X119.1 Y141.877 E26.1611
G1 X119.1 Y167.1 E28.84565
G0 F6000 X118.31 Y166.31
;TYPE:SKIN
G1 F1200 X101.69 Y166.31 E30.61455
G1 X101.69 Y142.03 E33.19873
G1 X102.552 Y139.914 E33.44191
G1 X103.739 Y137.697 E33.70957
G1 X105.229 Y135.493 E33.99272
G1 X106.438 Y133.59 E34.23268
G1 X107.404 Y131.333 E34.49398
G1 X107.995 Y128.949 E34.75539
G1 X108.19 Y126.548 E35.01178
G1 X108.19 Y93.452 E38.53426
G1 X107.995 Y91.051 E38.79065
G1 X107.404 Y88.667 E39.05207
G1 X106.438 Y86.41 E39.31336
G1 X105.162 Y84.405 E39.56631
G1 X103.737 Y82.298 E39.83703
G1 X102.552 Y80.086 E40.10412
G1 X101.69 Y77.97 E40.3473
G1 X101.69 Y53.69 E42.93148
G1 X118.31 Y53.69 E44.70038
G1 X118.31 Y77.97 E47.28456
G1 X117.448 Y80.086 E47.52774
G1 X116.261 Y82.303 E47.7954
G1 X114.771 Y84.507 E48.07855
G1 X113.562 Y86.41 E48.31851
G1 X112.596 Y88.667 E48.5798
G1 X112.005 Y91.051 E48.84122
G1 X111.81 Y93.452 E49.09761
G1 X111.81 Y126.548 E52.62009
G1 X112.005 Y128.949 E52.87648
G1 X112.596 Y131.333 E53.13789
G1 X113.562 Y133.59 E53.39919
G1 X114.838 Y135.595 E53.65214
G1 X116.263 Y137.702 E53.92286
G1 X117.448 Y139.914 E54.18995
G1 X118.31 Y142.03 E54.43313
G1 X118.31 Y166.31 E57.01731
G0 F6000 X117.989 Y165.6
G1 F1200 X102.009 Y165.6 E58.7181
G0 F6000 X102.009 Y164.8
G1 F1200 X117.989 Y164.8 E60.41889
G0 F6000 X117.989 Y164
G1 F1200 X102.009 Y164 E62.11968
G0 F6000 X102.009 Y163.2
G1 F1200 X117.989 Y163.2 E63.82047
G0 F6000 X117.989 Y162.4
G1 F1200 X102.009 Y162.4 E65.52126
G0 F6000 X102.009 Y161.6
G1 F1200 X117.989 Y161.6 E67.22205
G0 F6000 X117.989 Y160.8
G1 F1200 X102.009 Y160.8 E68.92284
G0 F6000 X102.009 Y160
G1 F1200 X117.989 Y160 E70.62363
G0 F6000 X117.989 Y159.2
G1 F1200 X102.009 Y159.2 E72.32442
G0 F6000 X102.009 Y158.4
G1 F1200 X117.989 Y158.4 E74.02521
G0 F6000 X117.989 Y157.6
G1 F1200 X102.009 Y157.6 E75.726
G0 F6000 X102.009 Y156.8
G1 F1200 X117.989 Y156.8 E77.42679
G0 F6000 X117.989 Y156
G1 F1200 X102.009 Y156 E79.12758
G0 F6000 X102.009 Y155.2
G1 F1200 X117.989 Y155.2 E80.82837
G0 F6000 X117.989 Y154.4
G1 F1200 X102.009 Y154.4 E82.52916
G0 F6000 X102.009 Y153.6
G1 F1200 X117.989 Y153.6 E84.22995
G0 F6000 X117.989 Y152.8
G1 F1200 X102.009 Y152.8 E85.93074
G0 F6000 X102.009 Y152
G1 F1200 X117.989 Y152 E87.63153
G0 F6000 X117.989 Y151.2
G1 F1200 X102.009 Y151.2 E89.33232
G0 F6000 X102.009 Y150.4
G1 F1200 X117.989 Y150.4 E91.03311
G0 F6000 X117.989 Y149.6
G1 F1200 X102.009 Y149.6 E92.7339
G0 F6000 X102.009 Y148.8
G1 F1200 X117.989 Y148.8 E94.43469
G0 F6000 X117.989 Y148
G1 F1200 X102.009 Y148 E96.13548
G0 F6000 X102.009 Y147.2
G1 F1200 X117.989 Y147.2 E97.83627
G0 F6000 X117.989 Y146.4
G1 F1200 X102.009 Y146.4 E99.53706
G0 F6000 X102.009 Y145.6
G1 F1200 X117.989 Y145.6 E101.23785
G0 F6000 X117.989 Y144.8
G1 F1200 X102.009 Y144.8 E102.93864
G0 F6000 X102.009 Y144
G1 F1200 X117.989 Y144 E104.63943
G0 F6000 X117.989 Y143.2
G1 F1200 X102.009 Y143.2 E106.34022
G0 F6000 X102.009 Y142.4
G1 F1200 X117.989 Y142.4 E108.04101
G0 F6000 X117.79 Y141.6
G1 F1200 X102.209 Y141.6 E109.69934
G0 F6000 X102.535 Y140.8
G1 F1200 X117.464 Y140.8 E111.28827
G0 F6000 X117.131 Y140
G1 F1200 X102.868 Y140 E112.80631
G0 F6000 X103.297 Y139.2
G1 F1200 X116.702 Y139.2 E114.23304
G0 F6000 X116.273 Y138.4
G1 F1200 X103.726 Y138.4 E115.56845
G0 F6000 X104.19 Y137.6
G1 F1200 X115.807 Y137.6 E116.80487
G0 F6000 X115.267 Y136.8
G1 F1200 X104.731 Y136.8 E117.92625
G0 F6000 X105.272 Y136
G1 F1200 X114.726 Y136 E118.93246
G0 F6000 X114.207 Y135.2
G1 F1200 X105.793 Y135.2 E119.82798
G0 F6000 X106.301 Y134.4
G1 F1200 X113.698 Y134.4 E120.61526
G0 F6000 X113.218 Y133.6
G1 F1200 X106.781 Y133.6 E121.30037
G0 F6000 X107.123 Y132.8
G1 F1200 X112.876 Y132.8 E121.91267
G0 F6000 X112.533 Y132
G1 F1200 X107.466 Y132 E122.45197
G0 F6000 X107.766 Y131.2
G1 F1200 X112.233 Y131.2 E122.9274
G0 F6000 X112.035 Y130.4
G1 F1200 X107.964 Y130.4 E123.36069
G0 F6000 X108.163 Y129.6
G1 F1200 X111.836 Y129.6 E123.75161
G0 F6000 X111.671 Y128.8
G1 F1200 X108.328 Y128.8 E124.10742
G0 F6000 X108.393 Y128
G1 F1200 X111.606 Y128 E124.44938
G0 F6000 X111.541 Y127.2
G1 F1200 X108.457 Y127.2 E124.77762
G0 F6000 X108.509 Y126.4
G1 F1200 X111.489 Y126.4 E125.09479
G0 F6000 X111.489 Y125.6
G1 F1200 X108.509 Y125.6 E125.41196
G0 F6000 X108.509 Y124.8
G1 F1200 X111.489 Y124.8 E125.72913
G0 F6000 X111.489 Y124
G1 F1200 X108.509 Y124 E126.04629
G0 F6000 X108.509 Y123.2
G1 F1200 X111.489 Y123.2 E126.36346
G0 F6000 X111.489 Y122.4
G1 F1200 X108.509 Y122.4 E126.68063
G0 F6000 X108.509 Y121.6
G1 F1200 X111.489 Y121.6 E126.9978
G0 F6000 X111.489 Y120.8
G1 F1200 X108.509 Y120.8 E127.31497
G0 F6000 X108.509 Y120
G1 F1200 X111.489 Y120 E127.63214
G0 F6000 X111.489 Y119.2
G1 F1200 X108.509 Y119.2 E127.94931
G0 F6000 X108.51 Y118.4
G1 F1200 X111.49 Y118.4 E128.26648
G0 F6000 X111.49 Y117.6
G1 F1200 X108.51 Y117.6 E128.58364
G0 F6000 X108.51 Y116.8
G1 F1200 X111.49 Y116.8 E128.90081
G0 F6000 X111.49 Y116
G1 F1200 X108.51 Y116 E129.21798
G0 F6000 X108.51 Y115.2
G1 F1200 X111.49 Y115.2 E129.53515
G0 F6000 X111.49 Y114.4
G1 F1200 X108.51 Y114.4 E129.85232
G0 F6000 X108.51 Y113.6
G1 F1200 X111.49 Y113.6 E130.16949
G0 F6000 X111.49 Y112.8
G1 F1200 X108.51 Y112.8 E130.48666
G0 F6000 X108.51 Y112
G1 F1200 X111.49 Y112 E130.80382
G0 F6000 X111.49 Y111.2
G1 F1200 X108.51 Y111.2 E131.12099
G0 F6000 X108.51 Y110.4
G1 F1200 X111.49 Y110.4 E131.43816
G0 F6000 X111.49 Y109.6
G1 F1200 X108.51 Y109.6 E131.75533
G0 F6000 X108.51 Y108.8
G1 F1200 X111.49 Y108.8 E132.0725
G0 F6000 X111.49 Y108
G1 F1200 X108.51 Y108 E132.38967
G0 F6000 X108.51 Y107.2
G1 F1200 X111.49 Y107.2 E132.70684
G0 F6000 X111.49 Y106.4
G1 F1200 X108.51 Y106.4 E133.02401
G0 F6000 X108.51 Y105.6
G1 F1200 X111.49 Y105.6 E133.34117
G0 F6000 X111.49 Y104.8
G1 F1200 X108.51 Y104.8 E133.65834
G0 F6000 X108.51 Y104
G1 F1200 X111.49 Y104 E133.97551
G0 F6000 X111.49 Y103.2
G1 F1200 X108.51 Y103.2 E134.29268
G0 F6000 X108.51 Y102.4
G1 F1200 X111.49 Y102.4 E134.60985
G0 F6000 X111.49 Y101.6
G1 F1200 X108.51 Y101.6 E134.92702
G0 F6000 X108.51 Y100.8
G1 F1200 X111.49 Y100.8 E135.24419
G0 F6000 X111.49 Y100
G1 F1200 X108.51 Y100 E135.56135
G0 F6000 X108.51 Y99.2
G1 F1200 X111.49 Y99.2 E135.87852
G0 F6000 X111.49 Y98.4
G1 F1200 X108.51 Y98.4 E136.19569
G0 F6000 X108.51 Y97.6
G1 F1200 X111.49 Y97.6 E136.51286
G0 F6000 X111.49 Y96.8
G1 F1200 X108.51 Y96.8 E136.83003
G0 F6000 X108.51 Y96
G1 F1200 X111.49 Y96 E137.1472
G0 F6000 X111.49 Y95.2
G1 F1200 X108.51 Y95.2 E137.46437
G0 F6000 X108.51 Y94.4
G1 F1200 X111.49 Y94.4 E137.78153
G0 F6000 X111.49 Y93.6
G1 F1200 X108.51 Y93.6 E138.0987
G0 F6000 X108.458 Y92.8
G1 F1200 X111.542 Y92.8 E138.42694
G0 F6000 X111.606 Y92
G1 F1200 X108.393 Y92 E138.76891
G0 F6000 X108.328 Y91.2
G1 F1200 X111.671 Y91.2 E139.12471
G0 F6000 X111.836 Y90.4
G1 F1200 X108.163 Y90.4 E139.51564
G0 F6000 X107.964 Y89.6
G1 F1200 X112.035 Y89.6 E139.94893
G0 F6000 X112.233 Y88.8
G1 F1200 X107.766 Y88.8 E140.42436
G0 F6000 X107.466 Y88
G1 F1200 X112.533 Y88 E140.96365
G0 F6000 X112.876 Y87.2
G1 F1200 X107.123 Y87.2 E141.57596
G0 F6000 X106.781 Y86.4
G1 F1200 X113.218 Y86.4 E142.26106
G0 F6000 X113.698 Y85.6
G1 F1200 X106.301 Y85.6 E143.04834
G0 F6000 X105.792 Y84.8
G1 F1200 X114.206 Y84.8 E143.94387
G0 F6000 X114.727 Y84
G1 F1200 X105.274 Y84 E144.94997
G0 F6000 X104.733 Y83.2
G1 F1200 X115.268 Y83.2 E146.07124
G0 F6000 X115.809 Y82.4
G1 F1200 X104.192 Y82.4 E147.30766
G0 F6000 X103.726 Y81.6
G1 F1200 X116.273 Y81.6 E148.64307
G0 F6000 X116.702 Y80.8
G1 F1200 X103.297 Y80.8 E150.0698
G0 F6000 X102.868 Y80
G1 F1200 X117.131 Y80 E151.58784
G0 F6000 X117.464 Y79.2
G1 F1200 X102.535 Y79.2 E153.17677
G0 F6000 X102.209 Y78.4
G1 F1200 X117.79 Y78.4 E154.8351
G0 F6000 X117.99 Y77.6
G1 F1200 X102.01 Y77.6 E156.53589
G0 F6000 X102.01 Y76.8
G1 F1200 X117.99 Y76.8 E158.23668
G0 F6000 X117.99 Y76
G1 F1200 X102.01 Y76 E159.93747
G0 F6000 X102.01 Y75.2
G1 F1200 X117.99 Y75.2 E161.63826
G0 F6000 X117.99 Y74.4
G1 F1200 X102.01 Y74.4 E163.33905
G0 F6000 X102.01 Y73.6
G1 F1200 X117.99 Y73.6 E165.03984
G0 F6000 X117.99 Y72.8
G1 F1200 X102.01 Y72.8 E166.74063
G0 F6000 X102.01 Y72
G1 F1200 X117.99 Y72 E168.44142
G0 F6000 X117.99 Y71.2
G1 F1200 X102.01 Y71.2 E170.14221
G0 F6000 X102.01 Y70.4
G1 F1200 X117.99 Y70.4 E171.843
G0 F6000 X117.99 Y69.6
G1 F1200 X102.01 Y69.6 E173.54379
G0 F6000 X102.01 Y68.8
G1 F1200 X117.99 Y68.8 E175.24458
G0 F6000 X117.99 Y68
G1 F1200 X102.01 Y68 E176.94537
G0 F6000 X102.01 Y67.2
G1 F1200 X117.99 Y67.2 E178.64616
G0 F6000 X117.99 Y66.4
G1 F1200 X102.01 Y66.4 E180.34695
G0 F6000 X102.01 Y65.6
G1 F1200 X117.99 Y65.6 E182.04774
G0 F6000 X117.99 Y64.8
G1 F1200 X102.01 Y64.8 E183.74853
G0 F6000 X102.01 Y64
G1 F1200 X117.99 Y64 E185.44932
G0 F6000 X117.99 Y63.2
G1 F1200 X102.01 Y63.2 E187.15011
G0 F6000 X102.01 Y62.4
G1 F1200 X117.99 Y62.4 E188.8509
G0 F6000 X117.99 Y61.6
G1 F1200 X102.01 Y61.6 E190.55169
G0 F6000 X102.01 Y60.8
G1 F1200 X117.99 Y60.8 E192.25248
G0 F6000 X117.99 Y60
G1 F1200 X102.01 Y60 E193.95327
G0 F6000 X102.01 Y59.2
G1 F1200 X117.99 Y59.2 E195.65406
G0 F6000 X117.99 Y58.4
G1 F1200 X102.01 Y58.4 E197.35485
G0 F6000 X102.01 Y57.6
G1 F1200 X117.99 Y57.6 E199.05564
G0 F6000 X117.99 Y56.8
G1 F1200 X102.01 Y56.8 E200.75643
G0 F6000 X102.01 Y56
G1 F1200 X117.99 Y56 E202.45722
G0 F6000 X117.99 Y55.2
G1 F1200 X102.01 Y55.2 E204.15801
G0 F6000 X102.01 Y54.4
G1 F1200 X117.99 Y54.4 E205.85881
G1 F1500 E199.85881
G1 F300 Z0.52
;MESH:NONMESH
G0 F6000 X119.1 Y167.1 Z0.52
;TIME_ELAPSED:114.623535
;LAYER:1
M140 S75
M106 S127.5
;MESH:good dog bone without defect_05262021.STL
G0 F7500 X119.1 Y167.1 Z0.84
;TYPE:WALL-OUTER
G1 F300 Z0.64
G1 F1500 E205.85881
G1 F1200 X100.9 Y167.1 E207.79588
G1 X100.9 Y141.877 E210.48042
G1 X101.841 Y139.568 E210.7458
G1 X103.056 Y137.298 E211.01983
G1 X104.502 Y135.162 E211.29436
G1 X105.737 Y133.22 E211.53931
G1 X106.653 Y131.081 E211.78697
G1 X107.213 Y128.821 E212.03478
G1 X107.4 Y126.516 E212.28091
G1 X107.4 Y93.484 E215.79659
G1 X107.213 Y91.179 E216.04272
G1 X106.653 Y88.919 E216.29053
G1 X105.737 Y86.78 E216.53819
G1 X104.502 Y84.838 E216.78313
G1 X103.056 Y82.702 E217.05767
G1 X101.841 Y80.432 E217.3317
G1 X100.9 Y78.123 E217.59708
G1 X100.9 Y52.9 E220.28162
G1 X119.1 Y52.9 E222.21869
G1 X119.1 Y78.123 E224.90324
G1 X118.159 Y80.432 E225.16862
G1 X116.944 Y82.702 E225.44265
G1 X115.498 Y84.838 E225.71718
G1 X114.263 Y86.78 E225.96213
G1 X113.347 Y88.919 E226.20978
G1 X112.787 Y91.179 E226.4576
G1 X112.6 Y93.484 E226.70373
G1 X112.6 Y126.516 E230.21941
G1 X112.787 Y128.821 E230.46554
G1 X113.347 Y131.081 E230.71335
G1 X114.263 Y133.22 E230.96101
G1 X115.498 Y135.162 E231.20595
G1 X116.944 Y137.298 E231.48049
G1 X118.159 Y139.568 E231.75452
G1 X119.1 Y141.877 E232.0199
G1 X119.1 Y167.1 E234.70444
G0 F7500 X118 Y166.7
;TYPE:FILL
G1 F1800 X118 Y140.236 E237.52107
G1 F1500 E231.52107
G1 F300 Z0.84
G0 F7500 X117.2 Y138.625 Z0.84
G1 F300 Z0.64
G1 F1500 E237.52107
G1 F1800 X117.2 Y166.7 E240.50916
G0 F7500 X116.4 Y166.7
G1 F1800 X116.4 Y137.208 E243.64806
G0 F7500 X115.6 Y136.026
G1 F1800 X115.6 Y166.7 E246.91277
G0 F7500 X114.8 Y166.7
G1 F1800 X114.8 Y134.809 E250.30701
G0 F7500 X114 Y133.552
G1 F1800 X114 Y166.7 E253.83503
G0 F7500 X113.2 Y166.7
G1 F1800 X113.2 Y131.754 E257.55442
G1 F1500 E251.55442
G1 F300 Z0.84
G0 F7500 X112.4 Y128.923 Z0.84
G1 F300 Z0.64
G1 F1500 E257.55442
G1 F1800 X112.4 Y166.7 E261.57512
G0 F7500 X111.6 Y166.7
G1 F1800 X111.6 Y53.3 E273.64456
G0 F7500 X110.8 Y53.3
G1 F1800 X110.8 Y166.7 E285.71399
G0 F7500 X110 Y166.7
G1 F1800 X110 Y53.3 E297.78343
G0 F7500 X109.2 Y53.3
G1 F1800 X109.2 Y166.7 E309.85287
G0 F7500 X108.4 Y166.7
G1 F1800 X108.4 Y53.3 E321.92231
G0 F7500 X107.6 Y53.3
G1 F1800 X107.6 Y91.077 E325.943
G1 F1500 E319.943
G1 F300 Z0.84
G0 F7500 X106.8 Y88.246 Z0.84
G1 F300 Z0.64
G1 F1500 E325.943
G1 F1800 X106.8 Y53.3 E329.66239
G0 F7500 X106 Y53.3
G1 F1800 X106 Y86.448 E333.19041
G0 F7500 X105.2 Y85.191
G1 F1800 X105.2 Y53.3 E336.58465
G0 F7500 X104.4 Y53.3
G1 F1800 X104.4 Y83.974 E339.84936
G0 F7500 X103.6 Y82.792
G1 F1800 X103.6 Y53.3 E342.98827
G0 F7500 X102.8 Y53.3
G1 F1800 X102.8 Y81.375 E345.97636
G1 F1500 E339.97636
G1 F300 Z0.84
G0 F7500 X102 Y79.764 Z0.84
G1 F300 Z0.64
G1 F1500 E345.97636
G1 F1800 X102 Y53.3 E348.79298
G1 F1500 E342.79298
G1 F300 Z0.84
G0 F7500 X112.4 Y53.3 Z0.84
G1 F300 Z0.64
G1 F1500 E348.79298
G1 F1800 X112.4 Y91.078 E352.81379
G1 F1500 E346.81379
G1 F300 Z0.84
G0 F7500 X113.2 Y88.247 Z0.84
G1 F300 Z0.64
G1 F1500 E352.81379
G1 F1800 X113.2 Y53.3 E356.53328
G0 F7500 X114 Y53.3
G1 F1800 X114 Y86.449 E360.06141
G0 F7500 X114.8 Y85.192
G1 F1800 X114.8 Y53.3 E363.45575
G0 F7500 X115.6 Y53.3
G1 F1800 X115.6 Y83.975 E366.72057
G0 F7500 X116.4 Y82.793
G1 F1800 X116.4 Y53.3 E369.85958
G0 F7500 X117.2 Y53.3
G1 F1800 X117.2 Y81.376 E372.84778
G1 F1500 E366.84778
G1 F300 Z0.84
G0 F7500 X118 Y79.765 Z0.84
G1 F300 Z0.64
G1 F1500 E372.84778
G1 F1800 X118 Y53.3 E375.66451
G1 F1500 E369.66451
G1 F300 Z0.84
G0 F7500 X107.6 Y128.922 Z0.84
G1 F300 Z0.64
G1 F1500 E375.66451
G1 F1800 X107.6 Y166.7 E379.68532
G0 F7500 X106.8 Y166.7
G1 F1800 X106.8 Y131.753 E383.40481
G1 F1500 E377.40481
G1 F300 Z0.84
G0 F7500 X106 Y133.551 Z0.84
G1 F300 Z0.64
G1 F1500 E383.40481
G1 F1800 X106 Y166.7 E386.93294
G0 F7500 X105.2 Y166.7
G1 F1800 X105.2 Y134.808 E390.32728
G0 F7500 X104.4 Y136.025
G1 F1800 X104.4 Y166.7 E393.5921
G0 F7500 X103.6 Y166.7
G1 F1800 X103.6 Y137.207 E396.73111
G1 F1500 E390.73111
G1 F300 Z0.84
G0 F7500 X102.8 Y138.624 Z0.84
G1 F300 Z0.64
G1 F1500 E396.73111
G1 F1800 X102.8 Y166.7 E399.71931
G0 F7500 X102 Y166.7
G1 F1800 X102 Y140.235 E402.53604
G1 F1500 E396.53604
G1 F300 Z0.84
;MESH:NONMESH
G0 F7500 X119.1 Y167.1 Z0.84
;TIME_ELAPSED:190.503064
;LAYER:2
M106 S255
;MESH:good dog bone without defect_05262021.STL
G0 F9000 X119.1 Y167.1 Z1.16
;TYPE:WALL-OUTER
G1 F300 Z0.96
G1 F1500 E402.53604
G1 F1200 X100.9 Y167.1 E404.47311
G1 X100.9 Y141.877 E407.15766
G1 X101.841 Y139.568 E407.42303
G1 X103.056 Y137.298 E407.69706
